X:0571
T:March of the 37th. Regt.
M:C
L:1/8
Q:1/2=72
I: :: ||
Z:Jack Campin * www.campin.me.uk * 2009
K:G
 G>B      |d3e dc/B/ cB/A/|G2G>G G2A>c|B>Gd>B      edcB             |d3   B A2
(G/A/B/c/)|d3e dc/B/ cB/A/|G2G>G G2A>c|B>de>c      B>d  (d/c/)(B/A/)|G2 G>G G2 ::
 A>A      |A3B dcBA       |B3  c edcB |BGdB        edcB             |d3   B AcBA|
           G3B BAcB       |B3  d dced |d>g (3fge (3dec (3BcA        |G2 G`G G2 |]
<end>
<start>
